icons/align-right.svg

<svg width="24" height="24" viewBox="0 0 24 24" fill="none" xmlns="http://www.w3.org/2000/svg">
<path fill-rule="evenodd" clip-rule="evenodd" d="M2 6C2 5.44772 2.44772 5 3 5H21C21.5523 5 22 5.44772 22 6C22 6.55228 21.5523 7 21 7H3C2.44772 7 2 6.55228 2 6ZM6 10C6 9.44772 6.44772 9 7 9H21C21.5523 9 22 9.44772 22 10C22 10.5523 21.5523 11 21 11H7C6.44772 11 6 10.5523 6 10ZM2 14C2 13.4477 2.44772 13 3 13H21C21.5523 13 22 13.4477 22 14C22 14.5523 21.5523 15 21 15H3C2.44772 15 2 14.5523 2 14ZM6 18C6 17.4477 6.44772 17 7 17H21C21.5523 17 22 17.4477 22 18C22 18.5523 21.5523 19 21 19H7C6.44772 19 6 18.5523 6 18Z" fill="black"/>
</svg>

<svg
  width="24"
  height="24"
  viewBox="0 0 24 24"
  xmlns="http://www.w3.org/2000/svg"
>
  <path
    fill-rule="evenodd"
    clip-rule="evenodd"
    d="M2 6a1 1 0 0 1 1-1h18a1 1 0 1 1 0 2H3a1 1 0 0 1-1-1zm4 4a1 1 0 0 1 1-1h14a1 1 0 1 1 0 2H7a1 1 0 0 1-1-1zm-4 4a1 1 0 0 1 1-1h18a1 1 0 1 1 0 2H3a1 1 0 0 1-1-1zm4 4a1 1 0 0 1 1-1h14a1 1 0 1 1 0 2H7a1 1 0 0 1-1-1z"
  />
</svg>
